svg/white/lpt.svg

<?xml version="1.0" encoding="UTF-8"?>
<svg width="32px" height="32px" viewBox="0 0 32 32" version="1.1" xmlns="http://www.w3.org/2000/svg" xmlns:xlink="http://www.w3.org/1999/xlink">
    <!-- Generator: Sketch 52.5 (67469) - http://www.bohemiancoding.com/sketch -->
    <title>svg/white/lpt</title>
    <desc>Created with Sketch.</desc>
    <g id="white/lpt" stroke="none" stroke-width="1" fill="none" fill-rule="evenodd">
        <path d="M16,32 C7.163444,32 0,24.836556 0,16 C0,7.163444 7.163444,0 16,0 C24.836556,0 32,7.163444 32,16 C32,24.836556 24.836556,32 16,32 Z M14.225,23.4833333 L14.225,26.9916667 L17.7333333,26.9916667 L17.7333333,23.4833333 L14.225,23.4833333 Z M14.225,8 L14.225,11.5083333 L17.7333333,11.5083333 L17.7333333,8 L14.225,8 Z M22.4916667,8 L22.4916667,11.5083333 L26,11.5083333 L26,8 L22.4916667,8 Z M6,8 L6,11.5083333 L9.50833333,11.5083333 L9.50833333,8 L6,8 Z M18.3583333,15.7416667 L18.3583333,19.25 L21.8666667,19.25 L21.8666667,15.7416667 L18.3583333,15.7416667 Z M10.0833333,15.7416667 L10.0833333,19.25 L13.5916667,19.25 L13.5916667,15.7416667 L10.0833333,15.7416667 Z" id="Combined-Shape" fill="#FFFFFF" fill-rule="nonzero"></path>
    </g>
</svg>

<svg width="32" height="32" viewBox="0 0 32 32" xmlns="http://www.w3.org/2000/svg"><path d="M16 32C7.163 32 0 24.837 0 16S7.163 0 16 0s16 7.163 16 16-7.163 16-16 16zm-1.775-8.517v3.509h3.508v-3.509h-3.508zm0-15.483v3.508h3.508V8h-3.508zm8.267 0v3.508H26V8h-3.508zM6 8v3.508h3.508V8H6zm12.358 7.742v3.508h3.509v-3.508h-3.509zm-8.275 0v3.508h3.509v-3.508h-3.509z" fill="#FFF"/></svg>
